X: 24357
T: Lounge Bar, The
R: jig
M: 6/8
K: Dmajor
B,DF E2D-|DFA d2c|BGB AFD|EGF E2D|
B,DF E2D-|DFA d2c|BGB AFD|1 E2D- D3:|2 E2D- DFA||
|:d2d- dcA|F3 FEF|GBd- dcA|E3 EDE|
F2F- FED|B,3 B,A,B,|CDE- EFE|1 D3 DFA:|2 D3 D3||
|:dBd c2B-|Bdf e2c|dcB AcB|AFD E2D|
dBd c2B-|Bdf e2c|dcB AFD|1 E2D- D3:|2 E2D- DFA||
|:d2d- dcA|F3 FEF|GBd- dcA|E3 EDE|
F2F- FED|B,3 B,A,B,|CDE- EFE|1 D3 DFA:|2 D3 D3||

